src/assets/rsschool-logo.svg

<svg width="100" height="37" viewBox="0 0 100 37" fill="none" xmlns="http://www.w3.org/2000/svg">
<g clip-path="url(#clip0)">
<path d="M51.6281 12.2443L56.3857 11.9382C56.4942 12.7125 56.6932 13.2887 57.0188 13.7028C57.5434 14.351 58.267 14.6752 59.2258 14.6752C59.9313 14.6752 60.492 14.5131 60.8719 14.171C61.2337 13.9009 61.4508 13.4687 61.4508 13.0186C61.4508 12.5864 61.2518 12.1723 60.9081 11.9022C60.5463 11.5781 59.6961 11.254 58.3575 10.9659C56.1686 10.4797 54.5948 9.83147 53.6722 9.00319C52.7496 8.22892 52.225 7.09453 52.2612 5.88811C52.2612 5.05982 52.5145 4.23153 52.9848 3.54729C53.5275 2.77303 54.2692 2.16081 55.1556 1.8187C56.1143 1.40455 57.453 1.18848 59.1353 1.18848C61.1975 1.18848 62.7714 1.56661 63.8567 2.34088C64.9421 3.09714 65.5933 4.32156 65.7923 5.99614L61.089 6.26624C60.9624 5.54599 60.7091 5.02381 60.2931 4.68169C59.877 4.33957 59.3343 4.17751 58.6288 4.17751C58.0499 4.17751 57.6158 4.30356 57.3263 4.53764C57.055 4.75371 56.8741 5.07783 56.8922 5.43795C56.8922 5.70804 57.0369 5.96013 57.254 6.12219C57.4892 6.33826 58.0499 6.53633 58.9363 6.71639C61.1252 7.18456 62.6809 7.65272 63.6397 8.13889C64.5984 8.62506 65.2858 9.21926 65.7019 9.92151C66.136 10.6418 65.5181 11.6537 65.5 12.5C65.5 13.5083 65.5 14 65.4667 15.1793C64.8698 16.0616 64.0376 16.7459 63.0608 17.16C62.0297 17.6102 60.7272 17.8443 59.1715 17.8443C56.4219 17.8443 54.5224 17.3221 53.4551 16.2597C52.3878 15.1973 51.7547 13.8649 51.6281 12.2443ZM1.13965 17.5742V1.47658H9.47902C11.0166 1.47658 12.2106 1.60262 13.0246 1.87271C13.8206 2.1248 14.5261 2.64698 14.9964 3.34923C15.521 4.12349 15.7742 5.02381 15.7562 5.96013C15.8104 7.54468 14.9964 9.05721 13.6035 9.84948C13.0608 10.1556 12.4638 10.3717 11.8488 10.4797C12.301 10.6057 12.7533 10.8218 13.1512 11.0739C13.4588 11.326 13.712 11.6141 13.9472 11.9202C14.2185 12.2263 14.4537 12.5684 14.6527 12.9285L17.0767 17.5922H11.3965L8.71925 12.6404C8.37554 12.0102 8.08611 11.5961 7.81476 11.398C7.45297 11.1459 7.01881 11.0199 6.58466 11.0199H6.15051V17.5562L1.13965 17.5742ZM6.15051 7.99484H8.267C8.71925 7.95883 9.1534 7.8868 9.58755 7.77876C9.91317 7.72474 10.2026 7.54468 10.4016 7.27459C10.89 6.62636 10.8177 5.70804 10.2207 5.14985C9.89508 4.87976 9.26194 4.73571 8.35745 4.73571H6.15051V7.99484ZM0 31.3669L4.7576 31.0608C4.86614 31.8351 5.06512 32.4113 5.39074 32.8254C5.89725 33.4737 6.63893 33.8158 7.59769 33.8158C8.30318 33.8158 8.86397 33.6537 9.24385 33.3116C9.60564 33.0235 9.82272 32.6094 9.82272 32.1592C9.82272 31.7271 9.62373 31.3129 9.28003 31.0428C8.91823 30.7187 8.06802 30.3946 6.71129 30.1065C4.52243 29.6203 2.94863 28.9721 2.02605 28.1438C1.10347 27.3696 0.578871 26.2352 0.615051 25.0287C0.615051 24.2005 0.868307 23.3722 1.33864 22.6879C1.88133 21.9137 2.62301 21.3015 3.50941 20.9593C4.46816 20.5452 5.8068 20.3291 7.48915 20.3291C9.55138 20.3291 11.1252 20.7072 12.2106 21.4815C13.2959 22.2558 13.9291 23.4622 14.1281 25.1368L9.42475 25.4069C9.29812 24.6866 9.04486 24.1644 8.6288 23.8223C8.23083 23.4802 7.67004 23.3182 6.96454 23.3362C6.38567 23.3362 5.95152 23.4622 5.66208 23.7143C5.37265 23.9304 5.20984 24.2545 5.22793 24.6146C5.22793 24.8847 5.37265 25.1368 5.58973 25.2988C5.82489 25.5149 6.38567 25.713 7.27207 25.893C9.46093 26.3612 11.0166 26.8294 11.9754 27.3155C12.9342 27.8017 13.6216 28.3959 14.0376 29.0982C14.4718 29.8184 14.6889 30.6467 14.6889 31.475C14.6889 32.4833 14.3813 33.4737 13.8206 34.32C13.2236 35.2023 12.3915 35.8865 11.4146 36.3007C10.3835 36.7508 9.08104 36.9849 7.52533 36.9849C4.77569 36.9849 2.87627 36.4627 1.80897 35.4003C0.741679 34.32 0.144718 32.9875 0 31.3669Z" fill="#161413"/>
<path d="M24.0593 30.1065L28.437 31.4209C28.2019 32.5193 27.7134 33.5637 27.0441 34.482C26.4291 35.2923 25.615 35.9225 24.6925 36.3366C23.7518 36.7508 22.5579 36.9669 21.1107 36.9669C19.356 36.9669 17.9088 36.7148 16.8053 36.2106C15.6838 35.7064 14.725 34.8061 13.911 33.5277C13.0969 32.2492 12.699 30.6107 12.699 28.612C12.699 25.947 13.4045 23.8943 14.8336 22.4718C16.2627 21.0494 18.2706 20.3291 20.8755 20.3291C22.9197 20.3291 24.5116 20.7432 25.6874 21.5535C26.8451 22.3818 27.7134 23.6422 28.2923 25.3348L23.8784 26.3072C23.7699 25.929 23.6071 25.5509 23.39 25.2268C23.1187 24.8487 22.775 24.5606 22.3589 24.3445C21.9428 24.1284 21.4725 24.0384 21.0022 24.0384C19.8625 24.0384 18.9942 24.4885 18.3972 25.4069C17.945 26.0731 17.7098 27.1355 17.7098 28.576C17.7098 30.3586 17.9812 31.583 18.5239 32.2492C19.0666 32.9155 19.8263 33.2396 20.8213 33.2396C21.78 33.2396 22.5036 32.9695 22.992 32.4473C23.4804 31.8891 23.8422 31.1148 24.0593 30.1065ZM34.28 20.5992H39.2728V26.2351H44.7359V20.5992H49.7648V36.6968H44.7359V30.1785H39.2728V36.6968H34.28V20.5992Z" fill="#161413"/>
<path d="M49.0774 28.6479C49.0774 26.019 49.8191 23.9663 51.2843 22.5078C52.7496 21.0493 54.8118 20.311 57.4348 20.311C60.1302 20.311 62.1924 21.0313 63.6577 22.4718C65.123 23.9123 65.8466 25.929 65.8466 28.5219C65.8466 30.4125 65.521 31.9431 64.8878 33.1495C64.2728 34.3379 63.314 35.3102 62.1382 35.9585C60.9262 36.6247 59.4247 36.9668 57.6338 36.9668C55.8068 36.9668 54.3053 36.6787 53.1114 36.1025C51.8813 35.4903 50.8683 34.536 50.199 33.3656C49.4573 32.1051 49.0774 30.5386 49.0774 28.6479ZM54.0702 28.6659C54.0702 30.2865 54.3777 31.4569 54.9746 32.1771C55.5716 32.8794 56.4037 33.2395 57.4529 33.2395C58.5202 33.2395 59.3524 32.8974 59.9493 32.1952C60.5463 31.4929 60.8357 30.2505 60.8357 28.4499C60.8357 26.9373 60.5282 25.8209 59.9131 25.1367C59.2981 24.4345 58.466 24.0923 57.4168 24.0923C56.4942 24.0563 55.6078 24.4525 54.9927 25.1547C54.3777 25.857 54.0702 27.0274 54.0702 28.6659ZM70.966 28.6479C70.966 26.019 71.7076 23.9663 73.1729 22.5078C75.5 22.5 77.1766 22.189 80 20.5C82.6954 20.5 84.0991 21.0313 85.5463 22.4718C86.9935 23.9123 87.7351 25.929 87.7351 28.5219C87.7351 30.4125 87.4095 31.9431 86.7764 33.1495C86.1613 34.3379 85.2026 35.3102 84.0267 35.9585C82.8147 36.6247 81.3133 36.9668 79.5224 36.9668C77.6953 36.9668 76.1939 36.6787 75 36.1025C73.7699 35.4903 72.7568 34.536 72.0875 33.3656C71.3458 32.1051 70.966 30.5386 70.966 28.6479ZM75.9587 28.6659C75.9587 30.2865 76.2663 31.4569 76.8632 32.1771C77.4602 32.8794 78.2923 33.2395 79.3415 33.2395C80.4088 33.2395 81.2409 32.8974 81.8379 32.1952C82.4348 31.4929 82.7243 30.2505 82.7243 28.4499C82.7243 26.9373 82.4168 25.8209 81.8017 25.1367C81.1867 24.4345 80.3545 24.0923 79.3053 24.0923C78.3828 24.0563 77.4783 24.4525 76.8813 25.1547C76.2663 25.857 75.9587 27.0274 75.9587 28.6659Z" fill="#161413"/>
<path d="M87.2105 20.5991H92.2032V32.7353H99.9999V36.6967H87.1924V20.5991H87.2105Z" fill="#161413"/>
<path d="M74.0955 22.6879C73.9327 22.6879 73.7699 22.6879 73.6071 22.6699C70.7127 22.5439 68.2525 21.3375 66.6787 19.2667C63.4407 14.9993 65.0326 8.37295 70.2062 4.48361C75.3799 0.594257 82.2178 0.91837 85.4559 5.16784C87.0297 7.23856 87.5181 9.9395 86.8488 12.7305C86.1795 15.5034 84.4248 18.0603 81.9284 19.951C79.5586 21.7336 76.809 22.6879 74.0955 22.6879ZM78.0572 2.48491C75.597 2.48491 72.9559 3.33121 70.6404 5.05981C65.7742 8.69707 64.2547 14.8912 67.2576 18.8346C68.7048 20.7432 70.966 21.8416 73.6433 21.9677C76.3386 22.0757 79.1245 21.1754 81.4942 19.3928C83.864 17.6282 85.5101 15.1973 86.1433 12.5864C86.7764 9.99352 86.3242 7.52666 84.877 5.618C83.3032 3.52928 80.7887 2.48491 78.0572 2.48491Z" fill="#161413"/>
<path d="M70.9841 11.0379L72.7931 9.77751L75.0181 12.9286C75.398 13.4328 75.6875 13.973 75.9045 14.5672C76.0312 15.0173 75.995 15.5035 75.8141 15.9356C75.5789 16.4758 75.199 16.926 74.6925 17.2501C74.0956 17.6642 73.589 17.8983 73.1549 17.9704C72.7388 18.0424 72.3047 17.9704 71.9067 17.7903C71.4725 17.5742 71.0927 17.2681 70.8032 16.872L72.3589 15.4315C72.4856 15.6295 72.6484 15.8096 72.8293 15.9537C72.9559 16.0437 73.1006 16.0977 73.2634 16.0977C73.3901 16.0977 73.5167 16.0437 73.6071 15.9717C73.788 15.8636 73.9147 15.6475 73.8966 15.4315C73.8423 15.1254 73.7157 14.8193 73.5167 14.5852L70.9841 11.0379ZM76.411 13.0366L78.0572 11.7402C78.2381 11.9563 78.4733 12.1183 78.7265 12.2084C79.0883 12.3164 79.4682 12.2444 79.7757 12.0103C79.9928 11.8662 80.1737 11.6682 80.2461 11.4161C80.3546 11.092 80.1737 10.7318 79.8481 10.6238C79.7938 10.6058 79.7396 10.5878 79.6853 10.5878C79.4682 10.5698 79.0883 10.6598 78.5275 10.8939C77.605 11.272 76.8814 11.4161 76.3387 11.3621C75.8141 11.308 75.3257 11.0379 75.0362 10.5878C74.8191 10.2817 74.7106 9.92156 74.6925 9.56143C74.6925 9.14729 74.8011 8.73315 75.0362 8.39103C75.3799 7.90486 75.796 7.49072 76.3025 7.1666C77.0623 6.64442 77.7316 6.39233 78.3105 6.39233C78.8893 6.39233 79.432 6.66243 79.9385 7.22062L78.3105 8.49907C77.9848 8.08492 77.3698 7.99489 76.9537 8.319L76.8995 8.37302C76.7186 8.48106 76.5919 8.64312 76.5196 8.84118C76.4653 8.98523 76.5015 9.14729 76.5919 9.27333C76.6643 9.36337 76.7728 9.43539 76.8995 9.43539C77.0442 9.4534 77.2974 9.38137 77.6592 9.21932C78.5637 8.84118 79.2511 8.62511 79.7215 8.55308C80.1194 8.48106 80.5355 8.51707 80.9154 8.67913C81.2591 8.82318 81.5485 9.07527 81.7475 9.38137C82.0008 9.7415 82.1455 10.1736 82.1636 10.6238C82.1817 11.092 82.055 11.5421 81.8018 11.9383C81.4762 12.4244 81.0601 12.8386 80.5717 13.1627C79.5767 13.8469 78.7627 14.135 78.1115 14.027C77.406 13.9189 76.8271 13.5588 76.411 13.0366Z" fill="#161413"/>
</g>
<defs>
<clipPath id="clip0">
<rect width="100" height="36.9668" fill="white"/>
</clipPath>
</defs>
</svg>

<svg width="100" height="37" fill="none" xmlns="http://www.w3.org/2000/svg">
  <g clip-path="url(#a)" fill="#161413">
    <path d="m51.628 12.244 4.758-.306c.108.774.307 1.35.633 1.765.524.648 1.248.972 2.207.972.705 0 1.266-.162 1.646-.504.362-.27.579-.702.579-1.152 0-.433-.2-.847-.543-1.117-.362-.324-1.212-.648-2.55-.936-2.19-.486-3.763-1.135-4.686-1.963a3.904 3.904 0 0 1-1.41-3.115c0-.828.252-1.656.723-2.34a4.752 4.752 0 0 1 2.17-1.73c.96-.413 2.298-.63 3.98-.63 2.063 0 3.636.379 4.722 1.153 1.085.756 1.736 1.98 1.935 3.655l-4.703.27c-.127-.72-.38-1.242-.796-1.584-.416-.342-.959-.504-1.664-.504-.58 0-1.013.126-1.303.36-.271.216-.452.54-.434.9 0 .27.145.522.362.684.235.216.796.414 1.682.594 2.19.469 3.745.937 4.704 1.423.958.486 1.646 1.08 2.062 1.783.434.72-.184 1.732-.202 2.578 0 1.008 0 1.5-.033 2.68a5.482 5.482 0 0 1-2.406 1.98c-1.031.45-2.334.684-3.89.684-2.75 0-4.649-.522-5.716-1.584-1.067-1.063-1.7-2.395-1.827-4.016ZM1.14 17.574V1.477h8.339c1.538 0 2.732.126 3.546.396a3.745 3.745 0 0 1 1.971 1.476c.525.774.778 1.675.76 2.611.054 1.585-.76 3.097-2.152 3.89a5.534 5.534 0 0 1-1.755.63c.452.126.904.342 1.302.594.308.252.561.54.796.846.272.306.507.648.706 1.008l2.424 4.664h-5.68L8.718 12.64c-.343-.63-.633-1.044-.904-1.242a2.154 2.154 0 0 0-1.23-.378H6.15v6.536l-5.011.018Zm5.01-9.58h2.117a8.078 8.078 0 0 0 1.32-.215c.326-.054.616-.234.815-.504a1.596 1.596 0 0 0-.181-2.125c-.326-.27-.96-.414-1.864-.414H6.151v3.259ZM0 31.368l4.758-.306c.108.774.307 1.35.633 1.764.506.649 1.248.99 2.207.99.705 0 1.266-.161 1.646-.503.362-.288.579-.703.579-1.153 0-.432-.2-.846-.543-1.116-.362-.324-1.212-.648-2.569-.936-2.189-.487-3.762-1.135-4.685-1.963a3.904 3.904 0 0 1-1.41-3.115c0-.828.252-1.657.723-2.341a4.753 4.753 0 0 1 2.17-1.729c.96-.414 2.298-.63 3.98-.63 2.062 0 3.636.378 4.722 1.152 1.085.775 1.718 1.981 1.917 3.656l-4.703.27c-.127-.72-.38-1.243-.796-1.585-.398-.342-.959-.504-1.664-.486-.58 0-1.013.126-1.303.378-.29.216-.452.54-.434.9 0 .27.145.523.362.685.235.216.796.414 1.682.594 2.189.468 3.745.936 4.703 1.422.96.487 1.647 1.08 2.063 1.783a4.61 4.61 0 0 1 .65 2.377 5.163 5.163 0 0 1-.867 2.845 5.483 5.483 0 0 1-2.406 1.98c-1.031.45-2.334.685-3.89.685-2.75 0-4.649-.522-5.716-1.585C.742 34.32.145 32.987 0 31.367Z"/>
    <path d="m24.06 30.107 4.377 1.314a8.113 8.113 0 0 1-1.393 3.061 6.056 6.056 0 0 1-2.352 1.855c-.94.414-2.134.63-3.581.63-1.755 0-3.202-.252-4.306-.756-1.121-.505-2.08-1.405-2.894-2.683-.814-1.279-1.212-2.917-1.212-4.916 0-2.665.706-4.718 2.135-6.14 1.429-1.423 3.437-2.143 6.041-2.143 2.045 0 3.637.414 4.812 1.224 1.158.829 2.026 2.09 2.605 3.782l-4.414.972a3.888 3.888 0 0 0-.488-1.08 2.867 2.867 0 0 0-1.031-.883 2.937 2.937 0 0 0-1.357-.306c-1.14 0-2.008.45-2.605 1.369-.452.666-.687 1.729-.687 3.169 0 1.783.271 3.007.814 3.673.543.666 1.302.99 2.297.99.959 0 1.683-.27 2.171-.792.488-.558.85-1.332 1.067-2.34Zm10.22-9.508h4.993v5.636h5.463V20.6h5.029v16.098h-5.03v-6.519h-5.462v6.519H34.28V20.599Z"/>
    <path d="M49.077 28.648c0-2.629.742-4.682 2.207-6.14 1.466-1.459 3.528-2.197 6.15-2.197 2.696 0 4.758.72 6.224 2.16 1.465 1.441 2.189 3.458 2.189 6.05 0 1.892-.326 3.422-.96 4.629a6.761 6.761 0 0 1-2.749 2.809c-1.212.666-2.713 1.008-4.504 1.008-1.827 0-3.329-.288-4.523-.864a6.88 6.88 0 0 1-2.912-2.737c-.742-1.26-1.122-2.827-1.122-4.718Zm4.993.018c0 1.62.308 2.79.905 3.511.597.702 1.429 1.063 2.478 1.063 1.067 0 1.9-.343 2.496-1.045.597-.702.887-1.945.887-3.745 0-1.513-.308-2.63-.923-3.313-.615-.703-1.447-1.045-2.496-1.045a3.07 3.07 0 0 0-2.424 1.063c-.615.702-.923 1.872-.923 3.51Zm16.896-.018c0-2.629.742-4.682 2.207-6.14C75.5 22.5 77.177 22.189 80 20.5c2.695 0 4.1.531 5.546 1.972 1.447 1.44 2.19 3.457 2.19 6.05 0 1.89-.327 3.421-.96 4.628a6.761 6.761 0 0 1-2.75 2.809c-1.211.666-2.713 1.008-4.504 1.008-1.827 0-3.328-.288-4.522-.864a6.881 6.881 0 0 1-2.912-2.737c-.742-1.26-1.122-2.827-1.122-4.718Zm4.993.018c0 1.62.307 2.79.904 3.511.597.702 1.43 1.063 2.478 1.063 1.068 0 1.9-.343 2.497-1.045s.886-1.945.886-3.745c0-1.513-.307-2.63-.922-3.313-.615-.703-1.448-1.045-2.497-1.045a3.045 3.045 0 0 0-2.424 1.063c-.615.702-.922 1.872-.922 3.51Z"/>
    <path d="M87.21 20.6h4.993v12.135H100v3.962H87.192V20.599h.019ZM74.096 22.688c-.163 0-.326 0-.489-.018-2.894-.126-5.355-1.333-6.928-3.403-3.238-4.268-1.646-10.894 3.527-14.783 5.174-3.89 12.012-3.566 15.25.684 1.574 2.07 2.062 4.772 1.393 7.562-.67 2.773-2.424 5.33-4.92 7.221-2.37 1.783-5.12 2.737-7.834 2.737Zm3.961-20.203c-2.46 0-5.101.846-7.417 2.575-4.866 3.637-6.385 9.831-3.382 13.775 1.447 1.908 3.708 3.007 6.385 3.133 2.696.108 5.481-.793 7.851-2.575 2.37-1.765 4.016-4.196 4.65-6.807.632-2.592.18-5.06-1.267-6.968-1.574-2.089-4.088-3.133-6.82-3.133Z"/>
    <path d="m70.984 11.038 1.81-1.26 2.224 3.15c.38.505.67 1.045.886 1.64.127.45.091.936-.09 1.368-.235.54-.615.99-1.121 1.314-.597.414-1.104.648-1.538.72-.416.072-.85 0-1.248-.18a3.018 3.018 0 0 1-1.104-.918l1.556-1.44c.127.197.29.378.47.522.127.09.272.144.434.144a.573.573 0 0 0 .344-.126.596.596 0 0 0 .29-.54 1.806 1.806 0 0 0-.38-.847l-2.533-3.547Zm5.427 1.999 1.646-1.297c.181.216.416.378.67.468.361.108.741.036 1.049-.198.217-.144.398-.342.47-.594a.631.631 0 0 0-.398-.792c-.054-.018-.108-.036-.163-.036-.217-.018-.597.072-1.157.306-.923.378-1.647.522-2.19.468a1.748 1.748 0 0 1-1.302-.774 1.936 1.936 0 0 1-.344-1.027c0-.414.11-.828.344-1.17.344-.486.76-.9 1.266-1.224.76-.523 1.43-.775 2.008-.775.58 0 1.122.27 1.629.829L78.31 8.499c-.326-.414-.941-.504-1.357-.18l-.054.054a.885.885 0 0 0-.38.468.467.467 0 0 0 .072.432c.072.09.18.162.308.162.144.018.397-.054.76-.216.904-.378 1.591-.594 2.062-.666a2.091 2.091 0 0 1 1.193.126c.344.144.633.396.832.702.254.36.398.793.417 1.243a2.26 2.26 0 0 1-.362 1.314c-.326.486-.742.9-1.23 1.225-.995.684-1.81.972-2.46.864a2.658 2.658 0 0 1-1.701-.99Z"/>
  </g>
  <defs>
    <clipPath id="a">
      <path fill="#fff" d="M0 0h100v36.967H0z"/>
    </clipPath>
  </defs>
</svg>
